src/components/common/icons/ticket.svg

<svg height="40" viewBox="0 0 39 40" width="39" xmlns="http://www.w3.org/2000/svg"><g fill="#010202" fill-rule="evenodd" transform="translate(0 -1)"><path d="m18.0925875.98441539c0 4.63453846-1.889875 8.8296923-4.944875 11.86823081l-7.193875 7.1496923c-3.055 3.036923-4.98875 7.5616153-4.98875 12.1945384l20.024875 8.5146923c0-4.6345384 1.889875-8.8296923 4.944875-11.8682307l7.193875-7.1529231c3.05825-3.0369231 4.944875-7.5583846 4.944875-12.19292309zm13.88075 15.24438461c-.3965-.3973846-.949-.6219231-1.508-.6219231-.563875 0-1.11475.2261539-1.5145.6235385-.398125.399-.62725.945-.62725 1.5055384 0 .5621539.229125 1.1097693.62725 1.5071539.0975.0969231.208.1857692.325.2616923l-6.368375 6.3290769c-2.51225 2.499-4.314375 5.5149231-5.308875 8.8054616l-12.06725-5.1304616c.51675-2.4699231 1.727375-4.7847692 3.4515-6.4954615l7.19225-7.1513077c.65325-.6477692 1.256125-1.3310769 1.81025-2.0466923.3965.3957692.949.6235384 1.508.6235384.56225 0 1.11475-.2277692 1.512875-.6267692.39975-.3941538.6305-.945.6305-1.5023077 0-.5605384-.23075-1.1097692-.6305-1.5039231-.2275-.2293846-.508625-.3973846-.8125-.5023846.52-1.04353843.95225-2.12746151 1.29025-3.24369228l12.033125 5.12723078c-.294125 1.4328461-.8255 2.8059231-1.54375 4.0416923z"/><path d="m25.93825 13.1217692c-1.05625-.5282307-2.34325-.1017692-2.873.9482308-.52975 1.0483846-.10075 2.3277692.953875 2.856.30875.1534615.637.2229231.960375.2229231.784875 0 1.53725-.4264616 1.91425-1.1727693.528125-1.0516153.102375-2.331-.9555-2.8543846"/></g></svg>

<?xml version="1.0" encoding="UTF-8"?>
<svg width="39px" height="40px" viewBox="0 0 39 40" version="1.1" xmlns="http://www.w3.org/2000/svg" xmlns:xlink="http://www.w3.org/1999/xlink">
    <!-- Generator: Sketch 52.5 (67469) - http://www.bohemiancoding.com/sketch -->
    <title>Icons/.ticket</title>
    <desc>Created with Sketch.</desc>
    <g id="Vapaaehtoisalusta-Layouts" stroke="none" stroke-width="1" fill="none" fill-rule="evenodd">
        <g id="HKI-Ikonit" transform="translate(-750.000000, -796.000000)" fill="#010202">
            <g id="Icons/.ticket" transform="translate(750.000000, 795.000000)">
                <path d="M18.0925875,0.984415385 C18.0925875,5.61895385 16.2027125,9.81410769 13.1477125,12.8526462 L5.9538375,20.0023385 C2.8988375,23.0392615 0.9650875,27.5639538 0.9650875,32.1968769 L20.9899625,40.7115692 C20.9899625,36.0770308 22.8798375,31.8818769 25.9348375,28.8433385 L33.1287125,21.6904154 C36.1869625,18.6534923 38.0735875,14.1320308 38.0735875,9.49749231 L18.0925875,0.984415385 Z M31.9733375,16.2288 C31.5768375,15.8314154 31.0243375,15.6068769 30.4653375,15.6068769 C29.9014625,15.6068769 29.3505875,15.8330308 28.9508375,16.2304154 C28.5527125,16.6294154 28.3235875,17.1754154 28.3235875,17.7359538 C28.3235875,18.2981077 28.5527125,18.8457231 28.9508375,19.2431077 C29.0483375,19.3400308 29.1588375,19.4288769 29.2758375,19.5048 L22.9074625,25.8338769 C20.3952125,28.3328769 18.5930875,31.3488 17.5985875,34.6393385 L5.5313375,29.5088769 C6.0480875,27.0389538 7.2587125,24.7241077 8.9828375,23.0134154 L16.1750875,15.8621077 C16.8283375,15.2143385 17.4312125,14.5310308 17.9853375,13.8154154 C18.3818375,14.2111846 18.9343375,14.4389538 19.4933375,14.4389538 C20.0555875,14.4389538 20.6080875,14.2111846 21.0062125,13.8121846 C21.4059625,13.4180308 21.6367125,12.8671846 21.6367125,12.3098769 C21.6367125,11.7493385 21.4059625,11.2001077 21.0062125,10.8059538 C20.7787125,10.5765692 20.4975875,10.4085692 20.1937125,10.3035692 C20.7137125,9.26003077 21.1459625,8.17610769 21.4839625,7.05987692 L33.5170875,12.1871077 C33.2229625,13.6199538 32.6915875,14.9930308 31.9733375,16.2288 Z" id="Fill-39"></path>
                <path d="M25.93825,13.1217692 C24.882,12.5935385 23.595,13.02 23.06525,14.07 C22.5355,15.1183846 22.9645,16.3977692 24.019125,16.926 C24.327875,17.0794615 24.656125,17.1489231 24.9795,17.1489231 C25.764375,17.1489231 26.51675,16.7224615 26.89375,15.9761538 C27.421875,14.9245385 26.996125,13.6451538 25.93825,13.1217692" id="Fill-40"></path>
            </g>
        </g>
    </g>
</svg>
